images/signature.svg

<?xml version="1.0" encoding="UTF-8"?>
<!DOCTYPE svg  PUBLIC '-//W3C//DTD SVG 1.1//EN'  'http://www.w3.org/Graphics/SVG/1.1/DTD/svg11.dtd'>
<svg width="554pt" height="154pt" version="1.1" viewBox="0 0 554 154" xmlns="http://www.w3.org/2000/svg">
<g fill="#fff">
<path d="m194.4 4.54c1.23-0.49 2.6-0.17 3.9-0.22 1.28 1.96 1.47 4.27 0.21 6.3-11.17 24.47-22.36 48.94-33.47 73.44 7.71-8 14.7-16.74 23.06-24.08 1.64-1.58 4.82-2.64 6.49-0.58 2.16 1.89 0.87 5.01-0.18 7.16-3.88 7.97-8.26 15.7-12.47 23.51 7.82-6.88 15.16-14.31 22.12-22.05 6.01-6.09 14.51-9.57 23.08-9.25 1.02 0.43 2.04 0.85 3.06 1.26 0.8 1.81 1.26 3.77 0.83 5.75-0.5 9.13-3.06 17.99-3.78 27.1 2.91-1.5 6.31-2.67 8.51-5.11 0.83-6.98 1.47-14.36 5.21-20.52 3.36-4.57 8.8-7.05 14.08-8.68 2.84-0.47 6.59-1.03 8.41 1.81 2.43 3.38 0.52 7.66-0.8 11.1-3.59 9.24-12.54 14.43-19.75 20.55 2.55 2.34 6.1 1.36 9.17 1.18 1.63-0.5 3.29-0.82 4.95-1.18 1.34-0.37 2.68-0.67 4.03-0.99 6.04-1.85 11.91-4.38 17.04-8.1 0.78-7.43 2.04-14.79 3.85-22.04 0.66-2.35 1.32-4.71 1.93-7.08 4.04-14.05 10.08-27.48 17.76-39.91 1.46-2.43 3.22-4.66 5.28-6.61 2.6-0.02 4.84 1.96 4.66 4.67-0.35 12.63-4.42 24.78-8.93 36.46-5.12 12.67-9.85 25.84-18.37 36.7-1.02 1.76 0.04 3.85 0.15 5.72 3.99 1.65 8.56 0.71 12.13-1.51 5.88-3.56 11.18-7.99 16.39-12.46 4.33-3.79 6.8-9.12 10.44-13.49 1.02-1.54 3.3-1.65 4.75-0.69 3.3 3.35 0.23 8.2-0.37 12.06 5.32-3.89 9.88-9.29 16.24-11.42 0.48 0.42 1.43 1.26 1.9 1.69 0.45 4.09-2.44 7.31-3.5 11.05-1.34 4.43-2.76 8.9-3.07 13.54 8.38 1.71 14.57-5.22 19.25-11.08 3.18-3.43 3.07-8.32 4.35-12.55 0.47-2.42 4.19-2.2 4.73 0.04 0.96 7.32-2.95 13.99-3.49 21.17 5.06-4.25 9.58-9.08 14.29-13.7 1.79-1.9 4.01-3.64 4.7-6.28 3.99-12.64 8-25.27 12.55-37.71 2-6.19 6.34-11.64 11.82-15.09 2.16-1.76 5.06 0.2 5.54 2.6 1.16 6.2-0.81 12.36-2.97 18.1-5.24 12.92-10.88 26.16-20.64 36.38-1.75 1.76-2.31 4.24-2.96 6.54-1.54 5.81-3.31 11.56-4.46 17.46 3.66 0.97 7.74 1.15 11.24-0.52 0.22-0.43 0.67-1.29 0.89-1.72 0.64-6.73 3.65-13.07 7.05-18.83 2.51-4.46 7.94-6.04 12.76-5.85 4.16 0.08 8.91-0.44 12.43 2.18 3.65 6.93 0.83 15.01 2.05 22.44 5.63-6.34 10.7-13.14 16.04-19.72 1.59-1.78 3.08-3.82 5.3-4.84 2.9-0.54 5.22 2.82 4.17 5.42-1.4 4.81-3.81 9.23-5.96 13.73 5.16-5.45 9.96-11.27 15.61-16.23 1.81-1.62 4.9-3.14 6.94-1.05 2.52 2.09 1.57 5.68 0.82 8.38-1.52 5.01-2.96 10.09-5.12 14.87 5.44-5.06 10.9-10.12 16.26-15.27 3.08-2.72 6.17-5.87 10.34-6.76 0.59 0.2 1.75 0.59 2.33 0.78 0.95 1.36 2.34 2.7 2.13 4.52-0.38 7.3-5.17 13.76-4.88 21.15 0.68 0.75 1.42 1.46 2.2 2.12 8.48 1.37 16.98-0.39 25.38-1.53 4.79-0.64 9.41-2.14 13.95-3.78 0.97-0.37 1.94-0.74 2.92-1.12 2.35-0.96 4.66-2.01 6.95-3.09 2.57-1.32 5-3.06 7.92-3.54-0.27 0.6-0.79 1.8-1.05 2.4-8.89 6.08-18.79 10.93-29.22 13.73-8.42 1.53-16.92 3.71-25.55 2.96-3.94-0.47-8.28-2.59-9.4-6.71-1.05-6.45 1.8-12.56 3.42-18.66-7.01 5.99-13.17 12.9-20.19 18.88-1.94 1.73-4.23 2.96-6.76 3.57-2.12-1.07-4.1-2.65-4.16-5.24 0.45-6.37 3.52-12.14 5.25-18.2-5.96 6.42-11.67 13.08-17.83 19.3-2.12 2.12-5.93 4.74-8.4 1.66-1.93-3.96 0.9-8.13 2.19-11.86-3.65 5.1-7.37 12.07-14.3 12.67-4.05-2.34-4.3-7.28-4.32-11.45-4.84 6.29-12.64 10.02-20.51 10.41-2.74 0.22-5.06-1.34-6.93-3.16-4.61 2.63-9.88 4.38-15.24 3.87-1.59-1.42-3.81-2.87-3.45-5.33 0.37-4.75 2.14-9.26 3.35-13.85-4.73 5.14-10.25 9.46-15.23 14.33-1.02 0.87-1.11 2.29-1.57 3.46-0.4 3.98-1.19 7.9-1.96 11.82-2.05 12.14-3.8 25.84-13.56 34.48-3.78 3.1-8.24 7.22-13.53 6.01-3.8-1.37-5.22-5.61-5.7-9.26-1.79-9.43 2.2-18.9 7.63-26.43 6.33-7.63 13.42-14.6 20.78-21.21 2.33-1.74 2.35-4.84 3.01-7.4-3.54 3.52-7.48 7.12-12.63 7.87-4.36 1.02-10.43 0.83-12.43-3.95-1.13-6.5 2.13-12.68 4.24-18.64-3.92 3.85-8.57 6.92-12.27 10.98-4.4 12.69-7.24 25.99-12.75 38.29-4.75 8.67-9.89 18.03-18.8 23.04-2.87 1.79-7.34 1.97-9.45-1.07-2.74-4-2.64-9.33-1.44-13.86 2.51-9.12 6.37-17.96 12.05-25.56 6.61-8.39 14.79-15.32 22.9-22.17 1.88-1.46 2.1-3.96 2.89-6.05-4.47 5.15-9.77 9.47-15.08 13.72-3.83 2.88-7.76 6.12-12.64 6.91-4.01 0.46-8.61 0.77-11.97-1.91-1.8-1.27-2.55-3.43-3.2-5.43-6.8 4.91-14.74 8.01-22.85 9.99-4 0.48-8.07 0.85-12.08 0.31-2.75-0.62-4.63-2.83-6.3-4.94-3.03 1.74-6.11 3.79-9.68 4.12-3.23 0.33-6.12-2.41-6.28-5.6-5.23 3.39-11.31 6.27-17.72 5.62-3.2-0.01-6.11-2.59-6.61-5.73-0.42-3.08 0.05-6.17 0.4-9.23-4.3 4.42-8.79 8.65-13.45 12.68-2.17 1.7-4.5 3.94-7.5 3.36-2.97-0.39-3.91-4.29-2.59-6.64 3.08-7.98 7.6-15.29 11.56-22.84-5.88 7.58-13.19 13.94-19.14 21.48-2.88 3.22-5.34 7.31-9.69 8.7-0.68-0.37-2.03-1.1-2.71-1.47-0.77-4.68 2.04-8.75 3.52-12.98-3.63 6-9.77 9.97-16 12.87-4.3 1.95-10.23 2.8-13.91-0.78-1.77-1.47-2.34-3.78-2.89-5.9-5 5.24-12.04 8.27-19.1 9.5-3.08 0.59-5.92-1.03-7.55-3.58 0.28-2.01 0.73-3.99 1.23-5.96-3.94 3.93-8.26 7.77-13.51 9.82-3.13 1.44-7.2-1.54-6.69-4.97 0.49-6.09 2.33-11.98 3.79-17.89 2.43-8.3 4.32-16.81 7.69-24.79l-1.44 0.04c-0.03 0.55-0.09 1.64-0.12 2.19-7.3 10.93-13.74 22.44-21.42 33.12-2.85 3.84-5.5 7.97-9.28 10.98-1.91 1.7-5.27 1.59-6.72-0.66-1.04-1.76-1.03-3.92-1.06-5.91 3.18-20.41 10.29-39.94 14.48-60.13-9.42 11-16.77 23.53-24.72 35.57-6.16 9.14-11.28 18.91-16.46 28.62-1.3 2.28-2.36 5-4.89 6.2-2.8 0.62-4.98-2.77-3.71-5.22 7.91-16.82 16.82-33.18 24.2-50.25 1.15-2.61 2.29-5.22 3.47-7.82 1.31-3.04 2.67-6.08 3.61-9.27-7.09 5.15-13.32 11.4-20.61 16.27-6.92 4.85-13.72 10.47-21.97 12.75 0.45-2.41 2.65-3.7 4.23-5.32 6.67-6.53 14.69-11.42 21.74-17.49 5.35-4.29 10.15-9.44 16.29-12.62 1.8-1.18 3.83-0.3 5.6 0.41 2.98 5.82-1.18 11.81-2.93 17.36-0.52 1.22-0.99 2.47-1.53 3.69l0.07 0.23c4-6 8.11-11.97 12.91-17.37 2.19-2.34 4.95-5.06 8.48-4.22 3.22 1.47 2.93 5.47 2.49 8.4-1.25 8.14-3.59 16.08-5.63 24.05-3.13 11.61-6.03 23.28-8.72 34.99 5.08-6.21 9.48-12.94 13.81-19.68 8.5-13.06 16.5-26.44 24.61-39.74 1.24-1.87 2.71-4.55 5.4-3.83 1.84 1.09 2.8 3.44 2.03 5.49-1.23 4.63-3 9.11-4.2 13.76-4.5 15.24-9.59 30.36-12.68 45.97 5.54-3.89 10.55-8.52 15.05-13.56 5.69-6.65 9.39-14.66 13.72-22.2 0.97-1.92 2.83-2.88 4.96-2.72 0.44 0.41 1.31 1.25 1.75 1.66-0.04 1.48 0.23 3.06-0.51 4.41-5.34 10.95-11.36 21.59-15.81 32.95 5.41-1.2 10.94-3.14 15.06-6.98 4.93-5.7 8.16-12.59 12.13-18.94 3.22-5.17 9.24-8.85 15.45-8.33 2.84 0.22 6.35 0.24 8.27 2.72 1.29 2.21-0.67 5.19-3.24 4.74-2.98-0.54-5.97-1.49-9.03-0.86-6.48 2.86-8.96 10.02-12.38 15.69-0.46 3.09-1.41 7.25 0.76 9.85 4.74 1.67 9.23-1.43 13.03-3.91 5.53-3.42 9.02-9.05 12.63-14.27 5.09-7.82 9.94-15.82 14.2-24.12 7.08-14.29 13.8-28.74 20.52-43.2 0.74-1.49 1.41-3.09 2.61-4.3m111.81 10.83c-4.87 9.36-10.52 18.44-13.78 28.56-3.2 10.15-6.37 20.47-7.25 31.12 6.45-12.74 11.98-25.92 16.61-39.43 2.23-6.09 3.2-12.54 4.88-18.77l0.05-0.88c-0.13-0.15-0.38-0.45-0.51-0.6m92.89 21.76c-1.65 5-3.28 10-4.88 15.01-0.25 1.36-0.54 2.73-0.84 4.08 5.81-11.92 13.88-23.48 15.19-37-5.07 4.8-7.51 11.39-9.47 17.91m-188.26 33.74c-6.58 5.36-7.91 14.5-8.18 22.49 8.42 0.7 17.35-4.84 19.17-13.35 0.79-4.87 1.46-9.77 2.07-14.67-4.78 0.44-9.52 2.2-13.06 5.53m36.44 0.44c-2.13 3.38-2.69 7.43-3.66 11.25 5.74-4.48 12.39-9.42 13.46-17.16-3.55 1.37-7.38 2.81-9.8 5.91m160.87 5.87c-4.05 4.88-6.1 11.11-7.77 17.14 5.68-0.24 11.51-2.09 15.29-6.55 3.53-3.17 4.36-7.98 5.67-12.3-4.35 0.17-9.5-1.19-13.19 1.71m-92.64 15.34c-5.01 4.99-10.33 9.69-14.84 15.16-5.52 6.74-8.63 15.08-10.77 23.43-0.83 2.96-0.93 6.05-0.43 9.07 3.15-1.18 5.85-3.35 7.89-6 3.53-4.51 6.46-9.47 9.01-14.59 4.25-8.64 6.24-18.16 9.98-26.99l-0.84-0.08m26.21 26.05c-5.89 7.82-10.44 18.17-7.09 27.98 6.02-2.97 11.2-8.1 13.42-14.52 3.28-8.52 4.83-17.56 6.71-26.45 0.22-0.41 0.66-1.24 0.88-1.65-5.56 3.9-9.66 9.45-13.92 14.64z"/>
<path d="m122.38 41.6c2.55-1.08 5.77 0.56 6.09 3.37 0.82 3.67-4.19 7.08-7.13 4.5-2.64-2.04-2.04-6.59 1.04-7.87z"/>
<path d="m330.37 44.6c2.54-1.07 5.73 0.53 6.1 3.33 0.85 3.67-4.15 7.12-7.11 4.55-2.65-2.03-2.07-6.58 1.01-7.88z"/>
</g>
</svg>

<?xml version="1.0" encoding="UTF-8" ?>
<!DOCTYPE svg PUBLIC "-//W3C//DTD SVG 1.1//EN" "http://www.w3.org/Graphics/SVG/1.1/DTD/svg11.dtd">
<svg width="554pt" height="154pt" viewBox="0 0 554 154" version="1.1" xmlns="http://www.w3.org/2000/svg">
<g id="#ffffffff">
<path fill="#ffffff" opacity="1.00" d=" M 194.40 4.54 C 195.63 4.05 197.00 4.37 198.30 4.32 C 199.58 6.28 199.77 8.59 198.51 10.62 C 187.34 35.09 176.15 59.56 165.04 84.06 C 172.75 76.06 179.74 67.32 188.10 59.98 C 189.74 58.40 192.92 57.34 194.59 59.40 C 196.75 61.29 195.46 64.41 194.41 66.56 C 190.53 74.53 186.15 82.26 181.94 90.07 C 189.76 83.19 197.10 75.76 204.06 68.02 C 210.07 61.93 218.57 58.45 227.14 58.77 C 228.16 59.20 229.18 59.62 230.20 60.03 C 231.00 61.84 231.46 63.80 231.03 65.78 C 230.53 74.91 227.97 83.77 227.25 92.88 C 230.16 91.38 233.56 90.21 235.76 87.77 C 236.59 80.79 237.23 73.41 240.97 67.25 C 244.33 62.68 249.77 60.20 255.05 58.57 C 257.89 58.10 261.64 57.54 263.46 60.38 C 265.89 63.76 263.98 68.04 262.66 71.48 C 259.07 80.72 250.12 85.91 242.91 92.03 C 245.46 94.37 249.01 93.39 252.08 93.21 C 253.71 92.71 255.37 92.39 257.03 92.03 C 258.37 91.66 259.71 91.36 261.06 91.04 C 267.10 89.19 272.97 86.66 278.10 82.94 C 278.88 75.51 280.14 68.15 281.95 60.90 C 282.61 58.55 283.27 56.19 283.88 53.82 C 287.92 39.77 293.96 26.34 301.64 13.91 C 303.10 11.48 304.86 9.25 306.92 7.30 C 309.52 7.28 311.76 9.26 311.58 11.97 C 311.23 24.60 307.16 36.75 302.65 48.43 C 297.53 61.10 292.80 74.27 284.28 85.13 C 283.26 86.89 284.32 88.98 284.43 90.85 C 288.42 92.50 292.99 91.56 296.56 89.34 C 302.44 85.78 307.74 81.35 312.95 76.88 C 317.28 73.09 319.75 67.76 323.39 63.39 C 324.41 61.85 326.69 61.74 328.14 62.70 C 331.44 66.05 328.37 70.90 327.77 74.76 C 333.09 70.87 337.65 65.47 344.01 63.34 C 344.49 63.76 345.44 64.60 345.91 65.03 C 346.36 69.12 343.47 72.34 342.41 76.08 C 341.07 80.51 339.65 84.98 339.34 89.62 C 347.72 91.33 353.91 84.40 358.59 78.54 C 361.77 75.11 361.66 70.22 362.94 65.99 C 363.41 63.57 367.13 63.79 367.67 66.03 C 368.63 73.35 364.72 80.02 364.18 87.20 C 369.24 82.95 373.76 78.12 378.47 73.50 C 380.26 71.60 382.48 69.86 383.17 67.22 C 387.16 54.58 391.17 41.95 395.72 29.51 C 397.72 23.32 402.06 17.87 407.54 14.42 C 409.70 12.66 412.60 14.62 413.08 17.02 C 414.24 23.22 412.27 29.38 410.11 35.12 C 404.87 48.04 399.23 61.28 389.47 71.50 C 387.72 73.26 387.16 75.74 386.51 78.04 C 384.97 83.85 383.20 89.60 382.05 95.50 C 385.71 96.47 389.79 96.65 393.29 94.98 C 393.51 94.55 393.96 93.69 394.18 93.26 C 394.82 86.53 397.83 80.19 401.23 74.43 C 403.74 69.97 409.17 68.39 413.99 68.58 C 418.15 68.66 422.90 68.14 426.42 70.76 C 430.07 77.69 427.25 85.77 428.47 93.20 C 434.10 86.86 439.17 80.06 444.51 73.48 C 446.10 71.70 447.59 69.66 449.81 68.64 C 452.71 68.10 455.03 71.46 453.98 74.06 C 452.58 78.87 450.17 83.29 448.02 87.79 C 453.18 82.34 457.98 76.52 463.63 71.56 C 465.44 69.94 468.53 68.42 470.57 70.51 C 473.09 72.60 472.14 76.19 471.39 78.89 C 469.87 83.90 468.43 88.98 466.27 93.76 C 471.71 88.70 477.17 83.64 482.53 78.49 C 485.61 75.77 488.70 72.62 492.87 71.73 C 493.46 71.93 494.62 72.32 495.20 72.51 C 496.15 73.87 497.54 75.21 497.33 77.03 C 496.95 84.33 492.16 90.79 492.45 98.18 C 493.13 98.93 493.87 99.64 494.65 100.30 C 503.13 101.67 511.63 99.91 520.03 98.77 C 524.82 98.13 529.44 96.63 533.98 94.99 C 534.95 94.62 535.92 94.25 536.90 93.87 C 539.25 92.91 541.56 91.86 543.85 90.78 C 546.42 89.46 548.85 87.72 551.77 87.24 C 551.50 87.84 550.98 89.04 550.72 89.64 C 541.83 95.72 531.93 100.57 521.50 103.37 C 513.08 104.90 504.58 107.08 495.95 106.33 C 492.01 105.86 487.67 103.74 486.55 99.62 C 485.50 93.17 488.35 87.06 489.97 80.96 C 482.96 86.95 476.80 93.86 469.78 99.84 C 467.84 101.57 465.55 102.80 463.02 103.41 C 460.90 102.34 458.92 100.76 458.86 98.17 C 459.31 91.80 462.38 86.03 464.11 79.97 C 458.15 86.39 452.44 93.05 446.28 99.27 C 444.16 101.39 440.35 104.01 437.88 100.93 C 435.95 96.97 438.78 92.80 440.07 89.07 C 436.42 94.17 432.70 101.14 425.77 101.74 C 421.72 99.40 421.47 94.46 421.45 90.29 C 416.61 96.58 408.81 100.31 400.94 100.70 C 398.20 100.92 395.88 99.36 394.01 97.54 C 389.40 100.17 384.13 101.92 378.77 101.41 C 377.18 99.99 374.96 98.54 375.32 96.08 C 375.69 91.33 377.46 86.82 378.67 82.23 C 373.94 87.37 368.42 91.69 363.44 96.56 C 362.42 97.43 362.33 98.85 361.87 100.02 C 361.47 104.00 360.68 107.92 359.91 111.84 C 357.86 123.98 356.11 137.68 346.35 146.32 C 342.57 149.42 338.11 153.54 332.82 152.33 C 329.02 150.96 327.60 146.72 327.12 143.07 C 325.33 133.64 329.32 124.17 334.75 116.64 C 341.08 109.01 348.17 102.04 355.53 95.43 C 357.86 93.69 357.88 90.59 358.54 88.03 C 355.00 91.55 351.06 95.15 345.91 95.90 C 341.55 96.92 335.48 96.73 333.48 91.95 C 332.35 85.45 335.61 79.27 337.72 73.31 C 333.80 77.16 329.15 80.23 325.45 84.29 C 321.05 96.98 318.21 110.28 312.70 122.58 C 307.95 131.25 302.81 140.61 293.90 145.62 C 291.03 147.41 286.56 147.59 284.45 144.55 C 281.71 140.55 281.81 135.22 283.01 130.69 C 285.52 121.57 289.38 112.73 295.06 105.13 C 301.67 96.74 309.85 89.81 317.96 82.96 C 319.84 81.50 320.06 79.00 320.85 76.91 C 316.38 82.06 311.08 86.38 305.77 90.63 C 301.94 93.51 298.01 96.75 293.13 97.54 C 289.12 98.00 284.52 98.31 281.16 95.63 C 279.36 94.36 278.61 92.20 277.96 90.20 C 271.16 95.11 263.22 98.21 255.11 100.19 C 251.11 100.67 247.04 101.04 243.03 100.50 C 240.28 99.88 238.40 97.67 236.73 95.56 C 233.70 97.30 230.62 99.35 227.05 99.68 C 223.82 100.01 220.93 97.27 220.77 94.08 C 215.54 97.47 209.46 100.35 203.05 99.70 C 199.85 99.69 196.94 97.11 196.44 93.97 C 196.02 90.89 196.49 87.80 196.84 84.74 C 192.54 89.16 188.05 93.39 183.39 97.42 C 181.22 99.12 178.89 101.36 175.89 100.78 C 172.92 100.39 171.98 96.49 173.30 94.14 C 176.38 86.16 180.90 78.85 184.86 71.30 C 178.98 78.88 171.67 85.24 165.72 92.78 C 162.84 96.00 160.38 100.09 156.03 101.48 C 155.35 101.11 154.00 100.38 153.32 100.01 C 152.55 95.33 155.36 91.26 156.84 87.03 C 153.21 93.03 147.07 97.00 140.84 99.90 C 136.54 101.85 130.61 102.70 126.93 99.12 C 125.16 97.65 124.59 95.34 124.04 93.22 C 119.04 98.46 112.00 101.49 104.94 102.72 C 101.86 103.31 99.02 101.69 97.39 99.14 C 97.67 97.13 98.12 95.15 98.62 93.18 C 94.68 97.11 90.36 100.95 85.11 103.00 C 81.98 104.44 77.91 101.46 78.42 98.03 C 78.91 91.94 80.75 86.05 82.21 80.14 C 84.64 71.84 86.53 63.33 89.90 55.35 C 89.54 55.36 88.82 55.38 88.46 55.39 C 88.43 55.94 88.37 57.03 88.34 57.58 C 81.04 68.51 74.60 80.02 66.92 90.70 C 64.07 94.54 61.42 98.67 57.64 101.68 C 55.73 103.38 52.37 103.27 50.92 101.02 C 49.88 99.26 49.89 97.10 49.86 95.11 C 53.04 74.70 60.15 55.17 64.34 34.98 C 54.92 45.98 47.57 58.51 39.62 70.55 C 33.46 79.69 28.34 89.46 23.16 99.17 C 21.86 101.45 20.80 104.17 18.27 105.37 C 15.47 105.99 13.29 102.60 14.56 100.15 C 22.47 83.33 31.38 66.97 38.76 49.90 C 39.91 47.29 41.05 44.68 42.23 42.08 C 43.54 39.04 44.90 36.00 45.84 32.81 C 38.75 37.96 32.52 44.21 25.23 49.08 C 18.31 53.93 11.51 59.55 3.26 61.83 C 3.71 59.42 5.91 58.13 7.49 56.51 C 14.16 49.98 22.18 45.09 29.23 39.02 C 34.58 34.73 39.38 29.58 45.52 26.40 C 47.32 25.22 49.35 26.10 51.12 26.81 C 54.10 32.63 49.94 38.62 48.19 44.17 C 47.67 45.39 47.20 46.64 46.66 47.86 L 46.73 48.09 C 50.73 42.09 54.84 36.12 59.64 30.72 C 61.83 28.38 64.59 25.66 68.12 26.50 C 71.34 27.97 71.05 31.97 70.61 34.90 C 69.36 43.04 67.02 50.98 64.98 58.95 C 61.85 70.56 58.95 82.23 56.26 93.94 C 61.34 87.73 65.74 81.00 70.07 74.26 C 78.57 61.20 86.57 47.82 94.68 34.52 C 95.92 32.65 97.39 29.97 100.08 30.69 C 101.92 31.78 102.88 34.13 102.11 36.18 C 100.88 40.81 99.11 45.29 97.91 49.94 C 93.41 65.18 88.32 80.30 85.23 95.91 C 90.77 92.02 95.78 87.39 100.28 82.35 C 105.97 75.70 109.67 67.69 114.00 60.15 C 114.97 58.23 116.83 57.27 118.96 57.43 C 119.40 57.84 120.27 58.68 120.71 59.09 C 120.67 60.57 120.94 62.15 120.20 63.50 C 114.86 74.45 108.84 85.09 104.39 96.45 C 109.80 95.25 115.33 93.31 119.45 89.47 C 124.38 83.77 127.61 76.88 131.58 70.53 C 134.80 65.36 140.82 61.68 147.03 62.20 C 149.87 62.42 153.38 62.44 155.30 64.92 C 156.59 67.13 154.63 70.11 152.06 69.66 C 149.08 69.12 146.09 68.17 143.03 68.80 C 136.55 71.66 134.07 78.82 130.65 84.49 C 130.19 87.58 129.24 91.74 131.41 94.34 C 136.15 96.01 140.64 92.91 144.44 90.43 C 149.97 87.01 153.46 81.38 157.07 76.16 C 162.16 68.34 167.01 60.34 171.27 52.04 C 178.35 37.75 185.07 23.30 191.79 8.84 C 192.53 7.35 193.20 5.75 194.40 4.54 M 306.21 15.37 C 301.34 24.73 295.69 33.81 292.43 43.93 C 289.23 54.08 286.06 64.40 285.18 75.05 C 291.63 62.31 297.16 49.13 301.79 35.62 C 304.02 29.53 304.99 23.08 306.67 16.85 L 306.72 15.97 C 306.59 15.82 306.34 15.52 306.21 15.37 M 399.10 37.13 C 397.45 42.13 395.82 47.13 394.22 52.14 C 393.97 53.50 393.68 54.87 393.38 56.22 C 399.19 44.30 407.26 32.74 408.57 19.22 C 403.50 24.02 401.06 30.61 399.10 37.13 M 210.84 70.87 C 204.26 76.23 202.93 85.37 202.66 93.36 C 211.08 94.06 220.01 88.52 221.83 80.01 C 222.62 75.14 223.29 70.24 223.90 65.34 C 219.12 65.78 214.38 67.54 210.84 70.87 M 247.28 71.31 C 245.15 74.69 244.59 78.74 243.62 82.56 C 249.36 78.08 256.01 73.14 257.08 65.40 C 253.53 66.77 249.70 68.21 247.28 71.31 M 408.15 77.18 C 404.10 82.06 402.05 88.29 400.38 94.32 C 406.06 94.08 411.89 92.23 415.67 87.77 C 419.20 84.60 420.03 79.79 421.34 75.47 C 416.99 75.64 411.84 74.28 408.15 77.18 M 315.51 92.52 C 310.50 97.51 305.18 102.21 300.67 107.68 C 295.15 114.42 292.04 122.76 289.90 131.11 C 289.07 134.07 288.97 137.16 289.47 140.18 C 292.62 139.00 295.32 136.83 297.36 134.18 C 300.89 129.67 303.82 124.71 306.37 119.59 C 310.62 110.95 312.61 101.43 316.35 92.60 C 316.14 92.58 315.72 92.54 315.51 92.52 M 341.72 118.57 C 335.83 126.39 331.28 136.74 334.63 146.55 C 340.65 143.58 345.83 138.45 348.05 132.03 C 351.33 123.51 352.88 114.47 354.76 105.58 C 354.98 105.17 355.42 104.34 355.64 103.93 C 350.08 107.83 345.98 113.38 341.72 118.57 Z" />
<path fill="#ffffff" opacity="1.00" d=" M 122.38 41.60 C 124.93 40.52 128.15 42.16 128.47 44.97 C 129.29 48.64 124.28 52.05 121.34 49.47 C 118.70 47.43 119.30 42.88 122.38 41.60 Z" />
<path fill="#ffffff" opacity="1.00" d=" M 330.37 44.60 C 332.91 43.53 336.10 45.13 336.47 47.93 C 337.32 51.60 332.32 55.05 329.36 52.48 C 326.71 50.45 327.29 45.90 330.37 44.60 Z" />
</g>
</svg>
